static/img/wellplate.svg

<svg xmlns="http://www.w3.org/2000/svg" xml:space="preserve" viewBox="0 0 1000 1000"><path d="M763.4 261H244.6c-35.7 0-64.6 28.9-64.6 64.6v356.8c0 35.7 28.9 64.6 64.6 64.6h518.8c35.7 0 64.6-28.9 64.6-64.6V325.6c0-35.7-28.9-64.6-64.6-64.6M270 711c-29.8 0-54-24.2-54-54s24.2-54 54-54 54 24.2 54 54-24.2 54-54 54m0-156c-29.8 0-54-24.2-54-54s24.2-54 54-54 54 24.2 54 54-24.2 54-54 54m0-156c-29.8 0-54-24.2-54-54s24.2-54 54-54 54 24.2 54 54-24.2 54-54 54m156 312c-29.8 0-54-24.2-54-54s24.2-54 54-54 54 24.2 54 54-24.2 54-54 54m0-156c-29.8 0-54-24.2-54-54s24.2-54 54-54 54 24.2 54 54-24.2 54-54 54m0-156c-29.8 0-54-24.2-54-54s24.2-54 54-54 54 24.2 54 54-24.2 54-54 54m156 312c-29.8 0-54-24.2-54-54s24.2-54 54-54 54 24.2 54 54-24.2 54-54 54m0-156c-29.8 0-54-24.2-54-54s24.2-54 54-54 54 24.2 54 54-24.2 54-54 54m0-156c-29.8 0-54-24.2-54-54s24.2-54 54-54 54 24.2 54 54-24.2 54-54 54m156 312c-29.8 0-54-24.2-54-54s24.2-54 54-54 54 24.2 54 54-24.2 54-54 54m0-156c-29.8 0-54-24.2-54-54s24.2-54 54-54 54 24.2 54 54-24.2 54-54 54m0-156c-29.8 0-54-24.2-54-54s24.2-54 54-54 54 24.2 54 54-24.2 54-54 54"/></svg>

<?xml version="1.0" encoding="utf-8"?>
<!-- Generator: Adobe Illustrator 19.1.0, SVG Export Plug-In . SVG Version: 6.00 Build 0)  -->
<svg version="1.1" id="Icon" xmlns="http://www.w3.org/2000/svg" xmlns:xlink="http://www.w3.org/1999/xlink" x="0px" y="0px"
	 viewBox="0 0 1000 1000" style="enable-background:new 0 0 1000 1000;" xml:space="preserve">
<path d="M763.4,261H244.6c-35.7,0-64.6,28.9-64.6,64.6v356.8c0,35.7,28.9,64.6,64.6,64.6h518.8c35.7,0,64.6-28.9,64.6-64.6V325.6
	C828,289.9,799.1,261,763.4,261z M270,711c-29.8,0-54-24.2-54-54s24.2-54,54-54s54,24.2,54,54S299.8,711,270,711z M270,555
	c-29.8,0-54-24.2-54-54s24.2-54,54-54s54,24.2,54,54S299.8,555,270,555z M270,399c-29.8,0-54-24.2-54-54s24.2-54,54-54
	s54,24.2,54,54S299.8,399,270,399z M426,711c-29.8,0-54-24.2-54-54s24.2-54,54-54s54,24.2,54,54S455.8,711,426,711z M426,555
	c-29.8,0-54-24.2-54-54s24.2-54,54-54s54,24.2,54,54S455.8,555,426,555z M426,399c-29.8,0-54-24.2-54-54s24.2-54,54-54
	s54,24.2,54,54S455.8,399,426,399z M582,711c-29.8,0-54-24.2-54-54s24.2-54,54-54s54,24.2,54,54S611.8,711,582,711z M582,555
	c-29.8,0-54-24.2-54-54s24.2-54,54-54s54,24.2,54,54S611.8,555,582,555z M582,399c-29.8,0-54-24.2-54-54s24.2-54,54-54
	s54,24.2,54,54S611.8,399,582,399z M738,711c-29.8,0-54-24.2-54-54s24.2-54,54-54s54,24.2,54,54S767.8,711,738,711z M738,555
	c-29.8,0-54-24.2-54-54s24.2-54,54-54s54,24.2,54,54S767.8,555,738,555z M738,399c-29.8,0-54-24.2-54-54s24.2-54,54-54
	s54,24.2,54,54S767.8,399,738,399z"/>
</svg>
